packages/components/icons/assets/PinFill.svg

<svg viewBox="0 0 24 24" xmlns="http://www.w3.org/2000/svg" data-title="PinFill" fill="currentColor" stroke="none">
  <path fill-rule="evenodd" clip-rule="evenodd" d="M4 9.75102C4 5.47039 7.58172 2.00024 12 2.00024C16.4183 2.00024 20 5.47039 20 9.75102C20 10.8868 19.587 12.2052 19.0254 13.4754C18.4539 14.7681 17.6844 16.1078 16.8778 17.3163C16.0719 18.5235 15.211 19.6265 14.4449 20.44C14.0641 20.8445 13.6858 21.1998 13.3324 21.4625C13.1558 21.5938 12.9647 21.7176 12.7654 21.8123C12.5777 21.9016 12.3101 22.0002 12 22.0002C11.6899 22.0002 11.4223 21.9016 11.2346 21.8123C11.0353 21.7176 10.8442 21.5938 10.6676 21.4625C10.3142 21.1998 9.9359 20.8445 9.55506 20.44C8.78895 19.6265 7.92805 18.5235 7.12222 17.3163C6.31556 16.1078 5.5461 14.7681 4.97459 13.4754C4.41304 12.2052 4 10.8868 4 9.75102ZM12.0002 11.5707C13.5238 11.5707 14.759 10.374 14.759 8.89783C14.759 7.42163 13.5238 6.22494 12.0002 6.22494C10.4765 6.22494 9.24132 7.42163 9.24132 8.89783C9.24132 10.374 10.4765 11.5707 12.0002 11.5707Z"/>
</svg>

<svg viewBox="0 0 24 24" xmlns="http://www.w3.org/2000/svg" data-title="PinFill" fill="currentColor" stroke="none">
  <path fill-rule="evenodd" d="m4,9.75c0-4.28,3.58-7.75,8-7.75s8,3.47,8,7.75c0,1.14-.41,2.45-.97,3.72-.57,1.29-1.34,2.63-2.15,3.84-.81,1.21-1.67,2.31-2.43,3.12-.38.4-.76.76-1.11,1.02-.18.13-.37.26-.57.35-.19.09-.46.19-.77.19s-.58-.1-.77-.19c-.2-.09-.39-.22-.57-.35-.35-.26-.73-.62-1.11-1.02-.77-.81-1.63-1.92-2.43-3.12-.81-1.21-1.58-2.55-2.15-3.84-.56-1.27-.97-2.59-.97-3.72Zm8,1.82c1.52,0,2.76-1.2,2.76-2.67s-1.24-2.67-2.76-2.67-2.76,1.2-2.76,2.67,1.24,2.67,2.76,2.67Z"/>
</svg>
